X:1
T:Title
%%score { ( 1 3 ) | ( 2 4 ) }
L:1/8
M:6/8
K:Eb
V:1 treble nm="Grand Piano"
V:3 treble 
V:2 bass 
V:4 bass 
V:1
 z3 z2[Q:1/4=90] B | B>GF EG[Ec] | B3- B2 G | F>GA [CDA][B,DG][A,DF] | [G,E]3- [G,E]2 [B,EG] | %5
 [EGB]>[B,EG][EGB] [Ge][GB][Ac] | [GB]3- [GB]2 G | F>BB =ABc | B3- [AB]3 |[M:1/8] [DAB] | %10
[M:3/4] [EGB]>[B,EG] [EGB][Ge] [_Gd][Gc] | B2- [AB-] [GB]2 G | G>F Ec BG | F6 | %14
 [EB]>[EG] [FA] [GB]2 [Be] | [ce]>[Bd] [Ac] [GB]2 G | cB G[A,DF] [G,E][A,DF] | %17
[M:5/8] [G,E]-[G,E]- [G,E]3 |] %18
V:2
 z3 z2 [E,G,E] | [E,G,E]>[E,B,E][E,A,E] [E,G,][E,B,E][A,,A,] | [E,G,E]3- [E,G,E]2 [E,B,E] | %3
 [A,CE]>[G,CE][F,CE] B,,B,,B,, | E,3- E,2 E, | E,>E,E, [E,B,][E,E][E,E] | [E,E]3- [E,E]2 [E,B,E] | %7
 [F,B,D]>[F,DF][F,DF] [F,CF][F,B,D][F,=A,E] | z3 D3 |[M:1/8] B, | %10
[M:3/4] E,>E, E,[E,B,] [E,=A,][E,A,] | [E,B,]2 [F,D] [E,E]2 [E,B,E] | %12
 [E,B,E]>[E,A,E] [E,G,][A,E] [G,B,E][E,B,E] | [B,,B,]2 [C,=A,] [B,,B,]2 [B,,_A,] | %14
 [E,G,]>[E,B,] [E,B,] [E,E]2 [G,E] | [A,E]>[A,E] [A,E] [E,E]2 [E,B,E] | %16
 [E,A,E][E,G,E] [E,B,E]B,, B,,B,, |[M:5/8] E,-E,- E,3 |] %18
V:3
 x6 | x6 | x6 | x6 | x6 | x6 | x6 | x6 | [B,D]3 z3 |[M:1/8] x |[M:3/4] x6 | G2 z2 z2 | x6 | %13
 D2 E D2 [DB] | x6 | x6 | x6 |[M:5/8] x5 |] %18
V:4
 x6 | x6 | x6 | x6 | x6 | x6 | x6 | x6 | B,,6 |[M:1/8] x |[M:3/4] x6 | x6 | x6 | x6 | x6 | x6 | %16
 x6 |[M:5/8] x5 |] %18

